alecto/img/svg/dev.svg

<svg xmlns="http://www.w3.org/2000/svg" width="32" height="32"><path d="M28.913 16.472c-1.503 2.308-3.607 4.224-5.959 5.772a12.518 12.518 0 01-5.208 9.429 1.508 1.508 0 01-1.444.165 1.502 1.502 0 01-.906-1.137c-.228-1.347-.833-2.841-1.724-4.349-.998.272-1.968.494-2.875.651a1.5 1.5 0 01-1.318-.417l-4.068-4.068a1.5 1.5 0 01-.418-1.318 31.77 31.77 0 01.651-2.874c-1.507-.89-3-1.495-4.348-1.723a1.499 1.499 0 01-.971-2.35 12.524 12.524 0 019.428-5.21c1.547-2.351 3.464-4.456 5.772-5.959C19.903.234 25.107-.002 30.5-.002A1.5 1.5 0 0132 1.497c0 5.179-.238 10.6-3.087 14.975zM17.466 28.66a10.004 10.004 0 002.743-4.83 33.494 33.494 0 01-4.09 1.755c.572 1.035 1.031 2.068 1.347 3.075zM3.338 14.533c1.006.316 2.038.775 3.074 1.346a33.552 33.552 0 011.754-4.09 10.009 10.009 0 00-4.828 2.744zm13.823-8.935c-4.774 3.109-7.938 9.813-9.069 15.359l2.948 2.948c5.546-1.132 12.25-4.295 15.359-9.07 2.156-3.31 2.537-7.455 2.593-11.829-4.375.056-8.519.437-11.831 2.592zm4.339 7.4a2.5 2.5 0 110-5 2.5 2.5 0 010 5zM2.107 26.772a2.5 2.5 0 113.119 3.119l-3.581 1.086a.5.5 0 01-.624-.624l1.086-3.581z"/></svg>

<svg 
 xmlns="http://www.w3.org/2000/svg"
 xmlns:xlink="http://www.w3.org/1999/xlink"
 width="32px" height="32px">
<path
 d="M28.913,16.472 C27.410,18.780 25.306,20.696 22.954,22.244 C22.727,25.987 20.831,29.473 17.746,31.673 C17.488,31.856 17.182,31.951 16.875,31.951 C16.681,31.951 16.487,31.914 16.302,31.838 C15.825,31.640 15.482,31.211 15.396,30.701 C15.168,29.354 14.563,27.860 13.672,26.352 C12.674,26.624 11.704,26.846 10.797,27.003 C10.711,27.019 10.625,27.026 10.540,27.026 C10.145,27.026 9.763,26.870 9.479,26.586 L5.411,22.518 C5.065,22.173 4.910,21.681 4.993,21.200 C5.151,20.293 5.372,19.324 5.644,18.326 C4.137,17.436 2.644,16.831 1.296,16.603 C0.787,16.517 0.357,16.175 0.160,15.697 C-0.037,15.220 0.025,14.674 0.325,14.253 C2.525,11.168 6.010,9.272 9.753,9.043 C11.300,6.692 13.217,4.587 15.525,3.084 C19.903,0.234 25.107,-0.002 30.500,-0.002 C31.329,-0.002 32.000,0.669 32.000,1.497 C32.000,6.676 31.762,12.097 28.913,16.472 ZM17.466,28.660 C18.823,27.339 19.770,25.658 20.209,23.830 C18.860,24.521 17.479,25.104 16.119,25.585 C16.691,26.620 17.150,27.653 17.466,28.660 ZM3.338,14.533 C4.344,14.849 5.376,15.308 6.412,15.879 C6.893,14.519 7.475,13.139 8.166,11.789 C6.339,12.229 4.660,13.175 3.338,14.533 ZM17.161,5.598 C12.387,8.707 9.223,15.411 8.092,20.957 L11.040,23.905 C16.586,22.773 23.290,19.610 26.399,14.835 C28.555,11.525 28.936,7.380 28.992,3.006 C24.617,3.062 20.473,3.443 17.161,5.598 ZM21.500,12.998 C20.119,12.998 19.000,11.879 19.000,10.498 C19.000,9.117 20.119,7.998 21.500,7.998 C22.881,7.998 24.000,9.117 24.000,10.498 C24.000,11.879 22.881,12.998 21.500,12.998 ZM2.107,26.772 C2.418,25.745 3.372,24.998 4.500,24.998 C5.881,24.998 7.000,26.117 7.000,27.498 C7.000,28.626 6.253,29.580 5.226,29.891 L1.645,30.977 C1.600,30.990 1.551,30.998 1.500,30.998 C1.224,30.998 1.000,30.774 1.000,30.498 C1.000,30.447 1.007,30.399 1.021,30.353 L2.107,26.772 Z"/>
</svg>
